build/img/header-logo.svg

<svg width="100" height="66" viewBox="0 0 100 66" fill="none" xmlns="http://www.w3.org/2000/svg">
<path d="M97.2971 9.23778L99.2884 11.7822V63.39H55.4798C51.6078 65.8239 48.4549 65.7132 44.583 63.39H0V11.561L2.21255 8.85059V57.748L12.0584 58.9096C12.6853 59.0018 15.5874 59.1309 17.3132 58.9096C19.4705 58.6331 28.4313 54.6505 33.133 54.3739C37.8347 54.0973 42.2598 54.042 42.7576 54.042C43.2554 54.042 47.9018 54.4292 49.0081 58.9096H50.5016C51.1469 57.1211 54.1633 54.042 58.1902 54.042L66.7638 55.1483C72.1293 56.6418 82.5836 60.3478 85.4599 60.3478L97.2971 58.0799V9.23778Z" fill="#052DFF"/>
<path d="M49.6699 61.7306C50.2792 60.3637 53.4066 56.9554 56.7027 56.073C59.9989 55.1905 62.186 55.685 65.2877 56.6271C68.3893 57.5692 73.8172 60.0076 80.6298 60.7834H85.7808L97.4058 58.1352V9.30105L92.7041 3.37451L85.7808 9.30105C81.2944 9.30105 72.5212 6.37502 67.1154 5.31101C60.3582 3.981 51.4423 3.8646 49.6699 8.02087V61.7306Z" fill="#FFE640"/>
<path d="M49.6699 61.7303C49.055 60.3633 46.4518 56.8997 43.1251 56.0173C39.7983 55.1349 37.591 55.6294 34.4605 56.5715C31.3301 57.5136 25.8519 59.9519 18.9762 60.7277H13.7775L2.0447 58.0796V9.24538L6.78996 3.31885L13.7775 9.24538C18.3054 9.24538 27.16 6.31935 32.6158 5.25535C39.4357 3.92534 47.8811 3.69831 49.6699 7.85458V61.7303Z" fill="#FFE640"/>
<path d="M50 56C50.6232 54.6271 52.8037 52.1553 56.1752 51.269C59.5468 50.3827 61.7839 50.8793 64.9565 51.8256C68.1291 52.7718 73.6812 55.2208 80.6495 56H83.8908L93 54.3403V3.34648L85.9183 4.29268C81.3294 4.29268 72.3555 1.35387 66.8261 0.285211C59.9144 -1.05061 51.8696 2.51158 50.0567 6.68601L50 56Z" fill="white"/>
<path d="M50 56C49.3768 54.6271 47.1963 52.1553 43.8248 51.269C40.4532 50.3827 38.2161 50.8793 35.0435 51.8256C31.8709 52.7718 26.3188 55.2208 19.3505 56H14.0817L7 54.2746V3.34648L14.0817 4.29268C18.6706 4.29268 27.6445 1.35387 33.1739 0.285211C40.0856 -1.05061 48.1304 2.51158 49.9433 6.68601L50 56Z" fill="white"/>
<path fill-rule="evenodd" clip-rule="evenodd" d="M46.6239 5.86076C53.7785 5.97326 55.1856 15.7512 54.9948 20.6261C56.9266 17.8839 66.4422 12.0481 71.8082 15.634C77.1742 19.2198 77.5319 23.2979 77.0311 26.4619C76.5303 29.6259 76.0295 32.5789 72.2375 37.7116C69.2039 41.8178 60.1938 47.9536 56.068 50.5082C58.1285 51.563 59.5499 52.9633 60.003 53.5316C59.3162 53.5316 55.9964 51.8441 54.4224 51.0004L53.7069 51.5629C55.5385 52.3815 56.7119 53.5914 57.0696 54.0941C55.8104 54.2066 53.1107 53.1097 51.9183 52.5472L51.5605 52.7582C52.7928 53.6103 53.0643 53.9189 53.2108 54.0854C53.294 54.1799 53.3368 54.2286 53.4923 54.305C52.5193 54.4737 50.702 53.7191 49.915 53.3206C48.5413 53.9394 47.1485 54.0941 46.6238 54.0941C48.2932 53.1331 52.8197 50.4941 57.5704 47.6255C62.3211 44.7568 66.8476 39.6334 68.5171 37.4304C67.7062 38.1335 65.555 40.0178 63.4373 41.9303C60.79 44.3208 50.9882 51.141 47.2677 52.9691C44.2914 54.4316 43.2611 54.6097 43.118 54.5159C44.9305 53.2503 49.4571 50.1426 53.063 47.8364C56.669 45.5302 62.5787 39.4225 65.0828 36.657C61.9586 39.446 55.5099 45.1786 54.7086 45.7974C53.7069 46.5708 42.9034 53.3206 41.7586 53.5316C40.8429 53.7003 40.28 53.6019 40.1131 53.5316L44.549 50.7191C40.7093 48.5864 32.0283 43.1818 28.0217 38.6257C23.3724 33.3387 23.0392 27.9911 22.9581 26.6892C22.9518 26.5887 22.9471 26.5123 22.9419 26.4619C22.8704 25.7588 22.1549 17.8136 30.0251 15.3527C36.3211 13.384 42.808 18.5167 45.2645 21.3292C47.4824 18.9386 46.9816 16.4074 46.6239 15.634C46.2662 14.8606 45.336 13.1731 43.4043 13.2434C41.8589 13.2997 41.0432 14.4387 40.8286 15.0012C39.5694 13.8762 40.447 11.8138 41.0432 10.9231C40.9288 6.81699 44.716 5.83732 46.6239 5.86076ZM65.2269 26.0402C69.348 32.8463 56.7844 42.9383 49.9875 47.1335C47.2687 45.0476 40.9583 39.9759 37.4668 36.376C33.1025 31.8761 32.8163 25.1262 38.7547 22.5247C43.5054 20.4435 47.8411 25.7824 49.4151 28.7121C49.6821 28.4665 49.9738 28.1894 50.2874 27.8916C53.923 24.4391 60.4845 18.2081 65.2269 26.0402ZM48.0903 47.3084L47.1416 48.0323C43.055 45.5712 36.1516 39.3894 34.8088 36.6678C38.263 39.8045 45.7551 46.324 48.0903 47.3084ZM45.1673 49.4018L46.0358 48.8193C44.6607 48.3824 34.8662 40.5428 30.8375 36.805C32.227 39.8923 40.6802 46.999 45.1673 49.4018Z" fill="#052DFF"/>
<path d="M50.53 46.5467C43.4436 35.7141 42.1853 28.6128 48.0486 26.1087C49.0873 25.6652 52.586 25.0105 53.9111 29.2235C53.8062 27.9575 52.3727 23.8448 48.0622 24.4069C42.674 25.1096 42.238 30.6895 42.164 31.2989C41.7693 34.5489 43.6027 41.2052 50.53 46.5467Z" fill="#FFE640"/>
<path d="M50.6402 30.7315C50.7789 30.5587 50.9266 30.391 51.0878 30.2309C51.7267 29.5973 52.536 29.0858 53.4926 28.7118C54.0233 28.5044 54.5632 28.3552 55.089 28.2448L51.2639 27.4229L57.1573 27.9831C57.5501 27.9646 57.8977 27.9634 58.1814 27.9697C58.1812 27.9671 58.1809 27.9635 58.1806 27.9599C57.3003 26.844 55.1737 24.5227 52.4322 24.0986C51.0873 23.8908 49.7833 24.1696 48.6745 24.6031C46.7875 25.3408 45.4649 26.5266 45.4649 26.5266C45.4649 26.5266 47.5568 29.7029 50.6402 30.7315Z" fill="#FFE640"/>
<path d="M53.7613 33.8136L56.2215 31.0384C56.6242 30.052 57.1063 29.2581 57.43 28.7828C56.4444 28.8094 55.0675 28.9525 53.7725 29.4585C53.0085 29.7571 52.2731 30.1816 51.6675 30.7826C49.1799 33.2486 49.7917 37.7481 49.7917 37.7481C49.7917 37.7481 52.4482 38.0347 54.8189 37.1082C55.1848 36.9653 55.5432 36.7913 55.8845 36.5848C55.8163 36.3897 55.751 36.193 55.7005 35.9892C55.3469 34.5648 55.5239 33.1646 55.8924 31.9557L53.7613 33.8136Z" fill="#FFE640"/>
<path d="M60.2719 35.8042L58.2181 29.2585C57.5182 30.293 55.9575 32.9934 56.6301 35.7073C57.4857 39.159 61.6378 41.3117 61.6378 41.3117C61.6378 41.3117 64.3153 37.9667 63.5738 34.5665C61.5635 33.661 60.1559 31.924 59.312 30.5752L60.2719 35.8042Z" fill="#FFE640"/>
<path d="M66.673 27.3745C66.5176 27.3188 66.3604 27.2852 66.2034 27.2425C65.6362 27.696 64.9735 28.079 64.2109 28.3769C63.4092 28.6901 62.5978 28.8733 61.8588 28.9886L66.3214 30.8951L60.4075 29.1406C60.1268 29.1549 59.8728 29.1628 59.6758 29.1621C60.3568 30.4585 61.949 32.9655 64.4776 33.878C66.7254 34.6887 69.1577 34.0362 70.5931 33.4755C71.374 33.1704 71.8596 32.8925 71.8596 32.8925C71.8596 32.8925 70.143 28.6262 66.673 27.3745Z" fill="#FFE640"/>
<path d="M64.0838 23.1396L60.3517 27.7365C60.2094 27.9906 60.0801 28.1966 59.9766 28.3514C60.8584 28.3374 62.4344 28.2214 63.9443 27.6314C64.8064 27.2945 65.641 26.8036 66.3 26.0911C68.6761 23.5224 67.8747 19.0403 67.8747 19.0403C67.8747 19.0403 65.4467 18.8755 63.203 19.7523C62.3576 20.0832 61.5409 20.5642 60.8875 21.2545C61.6216 23.0394 61.4849 24.6885 61.0974 25.9792L64.0838 23.1396Z" fill="#FFE640"/>
<path d="M57.9228 26.1733L56.3218 22.0385L58.2282 25.6191C58.2282 25.6191 58.2284 25.6186 58.2282 25.6182L58.4003 26.0259L59.1813 27.8209C60.8094 25.2595 61.9635 19.6731 53.933 16.8222C53.933 16.8222 52.1978 20.1845 53.1333 23.2788C55.1511 23.7386 56.8111 25.0419 57.9228 26.1733Z" fill="#FFE640"/>
<path d="M44.3221 36.9296L40.0497 35.1157L43.693 37.1991C43.693 37.1991 43.6924 37.1992 43.692 37.199L44.1117 37.3919L45.9572 38.2641C43.0261 39.7233 36.8939 40.5428 34.7 32.4634C34.7 32.4634 38.5037 30.9443 41.7295 32.0429C42.005 34.0583 43.2262 35.7691 44.3221 36.9296Z" fill="#FFE640"/>
</svg>

<svg width="100" height="66" fill="none" xmlns="http://www.w3.org/2000/svg"><path d="M97.297 9.238l1.991 2.544V63.39H55.48c-3.872 2.434-7.025 2.323-10.897 0H0V11.561l2.213-2.71v48.897l9.845 1.162c.627.092 3.53.22 5.255 0 2.158-.277 11.118-4.26 15.82-4.536 4.702-.277 9.127-.332 9.625-.332.497 0 5.144.387 6.25 4.868h1.494c.645-1.789 3.661-4.868 7.688-4.868l8.574 1.106c5.365 1.494 15.82 5.2 18.696 5.2l11.837-2.268V9.238z" fill="#052DFF"/><path d="M49.67 61.73c.61-1.366 3.737-4.775 7.033-5.657 3.296-.883 5.483-.388 8.585.554 3.101.942 8.53 3.38 15.342 4.156h5.15l11.626-2.648V9.301l-4.702-5.926L85.781 9.3c-4.487 0-13.26-2.926-18.666-3.99-6.757-1.33-15.673-1.446-17.445 2.71v53.71zm0 0c-.615-1.367-3.218-4.83-6.545-5.713-3.327-.882-5.534-.388-8.664.554-3.13.943-8.61 3.38-15.485 4.157h-5.198L2.044 58.08V9.245L6.79 3.32l6.987 5.926c4.528 0 13.383-2.926 18.839-3.99 6.82-1.33 15.265-1.557 17.054 2.6V61.73z" fill="#FFE640"/><path d="M50 56c.623-1.373 2.804-3.845 6.175-4.731 3.372-.886 5.609-.39 8.782.557 3.172.946 8.724 3.395 15.693 4.174h3.24L93 54.34V3.346l-7.082.947c-4.589 0-13.563-2.94-19.092-4.008-6.912-1.336-14.956 2.227-16.77 6.401L50 56zm0 0c-.623-1.373-2.804-3.845-6.175-4.731-3.372-.886-5.609-.39-8.782.557-3.172.946-8.724 3.395-15.692 4.174h-5.27L7 54.275V3.346l7.082.947c4.589 0 13.563-2.94 19.092-4.008 6.912-1.336 14.956 2.227 16.77 6.401L50 56z" fill="#fff"/><path fill-rule="evenodd" clip-rule="evenodd" d="M46.624 5.86c7.154.113 8.562 9.891 8.37 14.766 1.933-2.742 11.448-8.578 16.814-4.992 5.366 3.586 5.724 7.664 5.223 10.828-.5 3.164-1.002 6.117-4.794 11.25-3.033 4.106-12.043 10.242-16.169 12.796 2.06 1.055 3.482 2.455 3.935 3.024-.687 0-4.007-1.688-5.58-2.532l-.716.563c1.831.819 3.005 2.028 3.363 2.531-1.26.113-3.96-.984-5.152-1.547l-.358.211c1.233.852 1.504 1.16 1.65 1.327.084.095.127.144.282.22-.973.169-2.79-.586-3.577-.984-1.374.618-2.767.773-3.291.773 1.67-.96 6.196-3.6 10.946-6.468 4.751-2.87 9.278-7.993 10.947-10.196-.81.703-2.962 2.588-5.08 4.5-2.647 2.39-12.449 9.211-16.17 11.04-2.976 1.462-4.006 1.64-4.149 1.546 1.813-1.266 6.34-4.373 9.945-6.68 3.606-2.306 9.516-8.413 12.02-11.179-3.124 2.789-9.573 8.522-10.374 9.14-1.002.774-11.806 7.524-12.95 7.735-.916.168-1.479.07-1.646 0l4.436-2.813c-3.84-2.133-12.52-7.537-16.527-12.093-4.65-5.287-4.983-10.635-5.064-11.937-.006-.1-.01-.177-.016-.227-.072-.703-.787-8.648 7.083-11.11 6.296-1.968 12.783 3.165 15.24 5.977 2.217-2.39 1.717-4.922 1.359-5.695-.358-.773-1.288-2.46-3.22-2.39A2.903 2.903 0 0040.83 15c-1.26-1.125-.382-3.187.214-4.078-.114-4.106 3.673-5.086 5.58-5.062zm18.603 20.18c4.121 6.806-8.443 16.898-15.24 21.093-2.718-2.085-9.029-7.157-12.52-10.757-4.364-4.5-4.65-11.25 1.288-13.851 4.75-2.081 9.086 3.257 10.66 6.187.267-.245.559-.523.872-.82 3.636-3.453 10.197-9.684 14.94-1.852zM48.09 47.308l-.948.724c-4.087-2.46-10.99-8.643-12.333-11.364 3.454 3.136 10.946 9.656 13.281 10.64zm-2.923 2.094l.869-.583c-1.375-.437-11.17-8.276-15.199-12.014 1.39 3.087 9.843 10.194 14.33 12.597z" fill="#052DFF"/><path d="M50.53 46.547c-7.086-10.833-8.345-17.934-2.481-20.438 1.038-.444 4.537-1.099 5.862 3.114-.105-1.265-1.538-5.378-5.849-4.816-5.388.703-5.824 6.282-5.898 6.892-.395 3.25 1.439 9.906 8.366 15.248z" fill="#FFE640"/><path d="M50.64 30.732a5.96 5.96 0 01.448-.501c.639-.634 1.448-1.145 2.405-1.52a10.07 10.07 0 011.596-.466l-3.825-.822 5.893.56c.393-.018.74-.02 1.024-.013v-.01c-.88-1.116-3.007-3.437-5.749-3.861-1.345-.208-2.649.07-3.758.504-1.886.738-3.21 1.924-3.21 1.924s2.093 3.176 5.176 4.204z" fill="#FFE640"/><path d="M53.761 33.814l2.46-2.776c.403-.986.885-1.78 1.209-2.255-.986.026-2.362.17-3.657.675-.765.3-1.5.724-2.106 1.325-2.487 2.466-1.875 6.965-1.875 6.965s2.656.287 5.027-.64a6.929 6.929 0 001.066-.523 6.653 6.653 0 01-.184-.596c-.354-1.424-.177-2.824.191-4.033l-2.13 1.858z" fill="#FFE640"/><path d="M60.272 35.804l-2.054-6.546c-.7 1.035-2.26 3.735-1.588 6.45.856 3.451 5.008 5.604 5.008 5.604s2.677-3.345 1.936-6.745c-2.01-.906-3.418-2.643-4.262-3.992l.96 5.23zm6.401-8.429c-.155-.056-.313-.09-.47-.133a7.593 7.593 0 01-1.992 1.135c-.802.313-1.613.496-2.352.612l4.462 1.906-5.913-1.754a14.1 14.1 0 01-.732.021c.68 1.297 2.273 3.803 4.802 4.716 2.247.81 4.68.158 6.115-.403.781-.305 1.267-.583 1.267-.583s-1.717-4.266-5.187-5.518zm-2.589-4.235l-3.732 4.596c-.143.255-.272.46-.375.615.881-.014 2.457-.13 3.967-.72.862-.337 1.697-.827 2.356-1.54 2.376-2.569 1.575-7.05 1.575-7.05s-2.428-.166-4.672.711c-.845.331-1.662.812-2.316 1.503.735 1.784.598 3.434.21 4.724l2.987-2.84z" fill="#FFE640"/><path d="M57.923 26.173l-1.601-4.134 1.906 3.58.172.407.781 1.795c1.628-2.562 2.783-8.148-5.248-10.999 0 0-1.735 3.363-.8 6.457 2.018.46 3.678 1.763 4.79 2.894zM44.322 36.93l-4.272-1.814 3.643 2.083h-.001l.42.193 1.845.872c-2.93 1.46-9.063 2.279-11.257-5.8 0 0 3.804-1.52 7.03-.421.275 2.015 1.496 3.726 2.592 4.887z" fill="#FFE640"/></svg>
